icons/circle/48/zenmap.svg

<svg xmlns="http://www.w3.org/2000/svg" viewBox="0 0 48 48">
 <defs>
  <linearGradient id="linearGradient3764" x1="1" x2="47" gradientUnits="userSpaceOnUse" gradientTransform="matrix(0,-1,1,0,-1.5e-6,47.999998)">
   <stop style="stop-color:#dbdbdb;stop-opacity:1"/>
   <stop offset="1" style="stop-color:#e5e5e5;stop-opacity:1"/>
  </linearGradient>
 </defs>
 <g>
  <path d="m 36.31 5 c 5.859 4.062 9.688 10.831 9.688 18.5 c 0 12.426 -10.07 22.5 -22.5 22.5 c -7.669 0 -14.438 -3.828 -18.5 -9.688 c 1.037 1.822 2.306 3.499 3.781 4.969 c 4.085 3.712 9.514 5.969 15.469 5.969 c 12.703 0 23 -10.298 23 -23 c 0 -5.954 -2.256 -11.384 -5.969 -15.469 c -1.469 -1.475 -3.147 -2.744 -4.969 -3.781 z m 4.969 3.781 c 3.854 4.113 6.219 9.637 6.219 15.719 c 0 12.703 -10.297 23 -23 23 c -6.081 0 -11.606 -2.364 -15.719 -6.219 c 4.16 4.144 9.883 6.719 16.219 6.719 c 12.703 0 23 -10.298 23 -23 c 0 -6.335 -2.575 -12.06 -6.719 -16.219 z" style="opacity:0.05"/>
  <path d="m 41.28 8.781 c 3.712 4.085 5.969 9.514 5.969 15.469 c 0 12.703 -10.297 23 -23 23 c -5.954 0 -11.384 -2.256 -15.469 -5.969 c 4.113 3.854 9.637 6.219 15.719 6.219 c 12.703 0 23 -10.298 23 -23 c 0 -6.081 -2.364 -11.606 -6.219 -15.719 z" style="opacity:0.1"/>
  <path d="m 31.25 2.375 c 8.615 3.154 14.75 11.417 14.75 21.13 c 0 12.426 -10.07 22.5 -22.5 22.5 c -9.708 0 -17.971 -6.135 -21.12 -14.75 a 23 23 0 0 0 44.875 -7 a 23 23 0 0 0 -16 -21.875 z" style="opacity:0.2"/>
 </g>
 <g>
  <path d="m 24 1 c 12.703 0 23 10.297 23 23 c 0 12.703 -10.297 23 -23 23 -12.703 0 -23 -10.297 -23 -23 0 -12.703 10.297 -23 23 -23 z" style="fill:url(#linearGradient3764);fill-opacity:1"/>
 </g>
 <g>
  <g>
   <g transform="translate(1,1)">
    <g style="opacity:0.1">
     <!-- color: #e5e5e5 -->
    </g>
   </g>
  </g>
 </g>
 <g transform="translate(2.5e-4,0)">
  <!-- color: #e5e5e5 -->
  <g>
   <path d="m 25 17 c -5.01 -0.023 -9.641 3.645 -12.727 7.254 -0.359 0.469 -0.359 1.023 0 1.492 3.34 3.951 7.857 7.268 12.727 7.254 5.15 -0.015 9.813 -3.521 12.732 -7.254 0.359 -0.469 0.359 -1.023 0 -1.492 -3.36 -3.99 -7.723 -7.231 -12.732 -7.254 z m 1 3.102 a 5 5 0 0 1 3.789 3.473 c 0.014 0.056 0.035 0.108 0.047 0.164 a 5 5 0 0 1 0.059 0.262 l -0.895 0 c -0.554 0 -1 0.446 -1 1 0 0.554 0.446 1 1 1 l 0.896 0 c -0.001 0.007 -0.001 0.014 -0.002 0.021 a 5 5 0 0 1 -0.102 0.396 c -0.007 0.028 -0.016 0.054 -0.023 0.082 a 5 5 0 0 1 -3.77 3.395 l 0 -0.895 c 0 -0.554 -0.446 -1 -1 -1 -0.554 0 -1 0.446 -1 1 l 0 0.898 a 5 5 0 0 1 -3.894 -3.898 l 0.895 0 c 0.554 0 1 -0.446 1 -1 0 -0.554 -0.446 -1 -1 -1 l -0.898 0 a 5 5 0 0 1 3.898 -3.895 l 0 0.895 c 0 0.554 0.446 1 1 1 0.554 0 1 -0.446 1 -1 l 0 -0.898 z m -1 2.898 a 2 2 0 0 0 -2 2 2 2 0 0 0 2 2 2 2 0 0 0 2 -2 2 2 0 0 0 -2 -2 z" style="fill:#000;opacity:0.1;fill-opacity:1;stroke:none;fill-rule:nonzero"/>
   <path d="m 24 16 c -5.01 -0.023 -9.641 3.645 -12.727 7.254 -0.359 0.469 -0.359 1.023 0 1.492 3.34 3.951 7.857 7.268 12.727 7.254 5.15 -0.015 9.813 -3.521 12.732 -7.254 0.359 -0.469 0.359 -1.023 0 -1.492 -3.36 -3.99 -7.723 -7.231 -12.732 -7.254 z m -0.008 2.555 c 2.785 0 4.99 2.441 4.99 5.449 0 3 -2.209 5.446 -4.99 5.445 -2.762 0 -4.992 -2.441 -4.992 -5.445 0 -3.01 2.234 -5.449 4.992 -5.449 z" style="fill:#2f93b7;fill-opacity:1;stroke:none;fill-rule:nonzero"/>
  </g>
 </g>
 <g>
  <path d="m 40.03 7.531 c 3.712 4.084 5.969 9.514 5.969 15.469 0 12.703 -10.297 23 -23 23 c -5.954 0 -11.384 -2.256 -15.469 -5.969 4.178 4.291 10.01 6.969 16.469 6.969 c 12.703 0 23 -10.298 23 -23 0 -6.462 -2.677 -12.291 -6.969 -16.469 z" style="opacity:0.1"/>
 </g>
 <rect width="5" height="2" x="16" y="23" rx="1" style="fill:#e34445;opacity:1;fill-opacity:1;stroke:none"/>
 <rect y="23" x="27" height="2" width="5" rx="1" style="fill:#e34445;opacity:1;fill-opacity:1;stroke:none"/>
 <rect width="2" height="5" x="23" y="27" rx="1" style="fill:#e34445;opacity:1;fill-opacity:1;stroke:none"/>
 <rect width="2" height="5" x="23" y="16" rx="1" style="fill:#e34445;opacity:1;fill-opacity:1;stroke:none"/>
 <path d="m 24 17 a 7 7 0 0 0 -7 7 7 7 0 0 0 7 7 7 7 0 0 0 7 -7 7 7 0 0 0 -7 -7 z m 0 2 a 5 5 0 0 1 5 5 5 5 0 0 1 -5 5 5 5 0 0 1 -5 -5 5 5 0 0 1 5 -5 z m 0 3 a 2 2 0 0 0 -2 2 2 2 0 0 0 2 2 2 2 0 0 0 2 -2 2 2 0 0 0 -2 -2 z" style="fill:#e34445;opacity:1;fill-opacity:1;stroke:none"/>
</svg>

<svg xmlns="http://www.w3.org/2000/svg" viewBox="0 0 48 48">
  <defs>
    <linearGradient id="a" x1="1" x2="47" gradientUnits="userSpaceOnUse" gradientTransform="rotate(-90 24 24)">
      <stop stop-color="#dbdbdb"/>
      <stop offset="1" stop-color="#e5e5e5"/>
    </linearGradient>
  </defs>
  <path d="M36.31 5c5.859 4.062 9.688 10.831 9.688 18.5 0 12.426-10.07 22.5-22.5 22.5-7.669 0-14.438-3.828-18.5-9.688a23.24 23.24 0 0 0 3.781 4.969 22.923 22.923 0 0 0 15.469 5.969c12.703 0 23-10.298 23-23a22.92 22.92 0 0 0-5.969-15.469A23.216 23.216 0 0 0 36.31 5zm4.969 3.781A22.911 22.911 0 0 1 47.498 24.5c0 12.703-10.297 23-23 23a22.909 22.909 0 0 1-15.719-6.219C12.939 45.425 18.662 48 24.998 48c12.703 0 23-10.298 23-23 0-6.335-2.575-12.06-6.719-16.219z" opacity=".05"/>
  <path d="M41.28 8.781a22.923 22.923 0 0 1 5.969 15.469c0 12.703-10.297 23-23 23A22.92 22.92 0 0 1 8.78 41.281 22.911 22.911 0 0 0 24.499 47.5c12.703 0 23-10.298 23-23A22.909 22.909 0 0 0 41.28 8.781z" opacity=".1"/>
  <path d="M31.25 2.375C39.865 5.529 46 13.792 46 23.505c0 12.426-10.07 22.5-22.5 22.5-9.708 0-17.971-6.135-21.12-14.75a23 23 0 0 0 44.875-7 23 23 0 0 0-16-21.875z" opacity=".2"/>
  <path d="M24 1c12.703 0 23 10.297 23 23S36.703 47 24 47 1 36.703 1 24 11.297 1 24 1z" fill="url(#a)"/>
  <path d="M25 17c-5.01-.023-9.64 3.645-12.727 7.254-.359.469-.359 1.023 0 1.492C15.613 29.697 20.13 33.014 25 33c5.15-.015 9.813-3.521 12.732-7.254.36-.469.36-1.023 0-1.492C34.372 20.264 30.01 17.023 25 17zm1 3.102a5 5 0 0 1 3.79 3.473c.013.056.034.108.046.164a5 5 0 0 1 .06.262H29c-.554 0-1 .446-1 1s.446 1 1 1h.896c0 .007 0 .014-.002.021a5 5 0 0 1-.102.396l-.023.082A5 5 0 0 1 26 29.895V29c0-.554-.446-1-1-1s-1 .446-1 1v.898A5 5 0 0 1 20.105 26H21c.554 0 1-.446 1-1s-.446-1-1-1h-.898A5 5 0 0 1 24 20.105V21c0 .554.446 1 1 1s1-.446 1-1v-.898zM25 23a2 2 0 0 0-2 2 2 2 0 0 0 2 2 2 2 0 0 0 2-2 2 2 0 0 0-2-2z" opacity=".1"/>
  <path d="M24 16c-5.01-.023-9.64 3.645-12.727 7.254-.359.469-.359 1.023 0 1.492C14.613 28.697 19.13 32.014 24 32c5.15-.015 9.813-3.521 12.732-7.254.36-.469.36-1.023 0-1.492C33.372 19.264 29.01 16.023 24 16zm-.008 2.555c2.785 0 4.99 2.441 4.99 5.449 0 3-2.209 5.446-4.99 5.445-2.762 0-4.992-2.441-4.992-5.445 0-3.01 2.234-5.449 4.992-5.449z" fill="#2f93b7"/>
  <path d="M40.03 7.531A22.922 22.922 0 0 1 45.999 23c0 12.703-10.297 23-23 23A22.92 22.92 0 0 1 7.53 40.031C11.708 44.322 17.54 47 23.999 47c12.703 0 23-10.298 23-23 0-6.462-2.677-12.291-6.969-16.469z" opacity=".1"/>
  <rect width="5" height="2" x="16" y="23" rx="1" fill="#e34445"/>
  <rect y="23" x="27" height="2" width="5" rx="1" fill="#e34445"/>
  <rect width="2" height="5" x="23" y="27" rx="1" fill="#e34445"/>
  <rect width="2" height="5" x="23" y="16" rx="1" fill="#e34445"/>
  <path d="M24 17a7 7 0 0 0-7 7 7 7 0 0 0 7 7 7 7 0 0 0 7-7 7 7 0 0 0-7-7zm0 2a5 5 0 0 1 5 5 5 5 0 0 1-5 5 5 5 0 0 1-5-5 5 5 0 0 1 5-5zm0 3a2 2 0 0 0-2 2 2 2 0 0 0 2 2 2 2 0 0 0 2-2 2 2 0 0 0-2-2z" fill="#e34445"/>
</svg>
